!!!SOCIAL_FUNCTION:	songs of the while earth reservation
!!!PDT:	1913
!!!OTL: No_168_We_Have_Salt.krn
!!!REG: Great_Lakes
!!!LANG: Non-Tone
!!!LING_GROUP: Algonquin
**kern	**kern
*staff2	*staff1
=1-	=1-
*clefF4	*clefF4
*k[b-e-a-d-]	*k[b-e-a-d-]
*M2/4	*M2/4
12GG^/	4A-\
12r	.
12GG/	.
12GG^/	4A-\
12r	.
12GG/	.
=2||	=2||
*M3/4	*M3/4
2.r	4A-\
.	4A-\
.	8c\L
.	8c\J
=3	=3
2.r	8c\L
.	8A-\J
.	4A-\
.	8A-\L
.	8A-\J
=4	=4
2.r	4A-\
.	4F\
.	8A-\L
.	8A-\J
=5	=5
2.r	4c\
.	4A-\
.	8F\L
.	8F\J
=6	=6
2.r	4E-\
.	4E-\
.	8A-\L
.	8A-\J
=7	=7
2.r	4c\
.	4A-\
.	8F\L
.	8F\J
=8	=8
2.r	4E-\
.	4C/
.	4E-\
=9	=9
2.r	4F\
.	8F\L
.	8F\J
.	8E-/L
.	8C/J
=10||	=10||
*M2/4	*M2/4
2r	4AA-/
.	4C/
=11	=11
2r	4AA-/
.	8AA-/L
.	8AA-/J
=12	=12
2r	2AA-/
==	==
*-	*-
